X:253
T: ES FUHR EIN ARMER BINDER
N: E0130
O: Europa, Mitteleuropa, Deutschland
R: erzaehlendes Volks - Lied, Schalk -, Schelmen - Lied, Liebe; Handwerk
M: 4/4
L: 1/8
K: G
Bc | d2d2e2e2 | d3cB2
d2 | c2B2A2A2 | G4z2
G2 | A2A2B2B2 | c4A2
d2 | G2G2F2G2 | A4
B4 | c2d2B2A2 | G6

@@@ Tune index: 3903
